X:42
T:Grand March in Bluebeard,The. TJD.42
M:C
L:1/4
Q:1/4=170
S:T.J.Dixon MS2, Lincolnshire, early 19thC
R:march
N:Spelling in MS title is ‘Blueberd’
N:Repeat mark added at end
A:Lincolnshire, Holton le Moor
Z:vmp.R.Greig2010
K:G
d>cBA|G2A2|B/>A/B/>c/ e/d/c/B/|A(A/>A/)Az|!
d>cBA|G2A2|B/>A/B/>c/BA|G(G/>G/)Gz:|!
|:A>GFG|A2B2|c>d e/d/c/B/|A(A/>A/)Az|!
A>GFG|AAAd|AGFE|D(D/>D/)”^Da Capo”Dz:|]

